X: 218
T:Easter Elchies, a Reel
B:William Marshall's Scottish Airs, Melodies, Strathspeys, Reels &c (1822)
C:William Marshall
L:1/8
M:C|
O:Scotland
R:Reel
Z:Clark Bernst + Richard Robinson
%%Page:58 - 1
F:http://richardrobinson.tunebook.org.uk/tune/4061
%%TBL:{"version":1,"type":"tune","id":"4061"}
K:F
%%staves {1 2}
V:1
C | \
F2 (Fd) cAGA | F2 (FA) cfag | fdcA GFDG | FCDE {E}F2 ~F :|
a | \
fc (fg/a/) (gd)de | fc (fg/a/) (cf)af | bgaf {a}gfdg | fcde ~f2 (fa) |
fc (fg/a/) (gd)de | fadf cfAc | BGAF GABd | FCDE {E}F2 ~F |]
V:2 middle=d clef=bass
L:1/4
z/ | ffgg | ffff | babB | c'C[Ff][Ff]/ :| \
z/ | ffbb | [fa]fff | efbb | c'cff | ffbb | [fa]baf | efbg | c'cff/ |]

